papirus/22x22/apps/latexila.svg

<svg height="22" viewBox="0 0 22 22" width="22" xmlns="http://www.w3.org/2000/svg"><g transform="translate(-1 -1029.3621913)"><circle cx="12" cy="1040.3622" fill="#00b88a" r="10"/><path d="m12 1032.8622a8 8 0 0 0 -8 8 8 8 0 0 0  8 8 8 8 0 0 0  8-8 8 8 0 0 0 -8-8zm-2 2h2 2l-1 2.5-1 2.5-1-2.5zm-.828125.3438l1.060547 2.4746 1.060547 2.4746-2.4746096-1.0606-2.4746094-1.0605 1.4140625-1.4141zm5.65625 0l1.414063 1.414 1.414062 1.4141-2.474609 1.0605-2.47461 1.0606 1.060547-2.4746zm-8.828125 3.6562l2.5 1 2.5 1-2.5 1-2.5 1v-2zm12 0v2 2l-2.5-1-2.5-1 2.5-1zm-6.707031 2.707l-1.060547 2.4746-1.060547 2.4747-1.4140625-1.4141-1.4140625-1.4141 2.4746094-1.0605zm1.414062 0l2.47461 1.0606 2.474609 1.0605-1.414062 1.4141-1.414063 1.4141-1.060547-2.4747zm-.707031.293l1 2.5 1 2.5h-2-2l1-2.5z" opacity=".2"/><path d="m12 4a8 8 0 0 0 -8 8 8 8 0 0 0  8 8 8 8 0 0 0  8-8 8 8 0 0 0 -8-8zm-2 2h2 2l-1 2.5-1 2.5-1-2.5zm-.828125.34375l1.060547 2.4746094 1.060547 2.4746096-2.4746096-1.060547-2.4746094-1.060547 1.4140625-1.4140625zm5.65625 0l1.414063 1.4140625 1.414062 1.4140625-2.474609 1.060547-2.47461 1.060547 1.060547-2.4746096zm-8.828125 3.65625l2.5 1 2.5 1-2.5 1-2.5 1v-2zm12 0v2 2l-2.5-1-2.5-1 2.5-1zm-6.707031 2.707031l-1.060547 2.47461-1.060547 2.474609-1.4140625-1.414062-1.4140625-1.414063 2.4746094-1.060547zm1.414062 0l2.47461 1.060547 2.474609 1.060547-1.414062 1.414063-1.414063 1.414062-1.060547-2.474609zm-.707031.292969l1 2.5 1 2.5h-2-2l1-2.5z" fill="#fff763" transform="translate(0 1028.3622)"/><path d="m12 1030.3622a10 10 0 0 0 -10 10 10 10 0 0 0  .010742.291 10 10 0 0 1  9.989258-9.791 10 10 0 0 1  9.989258 9.709 10 10 0 0 0  .01074-.209 10 10 0 0 0 -10-10z" fill="#fff" opacity=".2"/><path d="m21.989258 1040.0712a10 10 0 0 1 -9.989258 9.791 10 10 0 0 1 -9.9892578-9.709 10 10 0 0 0 -.0107422.209 10 10 0 0 0  10 10 10 10 0 0 0  10-10 10 10 0 0 0 -.01074-.291z" opacity=".3"/></g></svg>

<?xml version="1.0" encoding="UTF-8" standalone="no"?>
<!-- Created with Inkscape (http://www.inkscape.org/) -->

<svg
   xmlns:dc="http://purl.org/dc/elements/1.1/"
   xmlns:cc="http://creativecommons.org/ns#"
   xmlns:rdf="http://www.w3.org/1999/02/22-rdf-syntax-ns#"
   xmlns:svg="http://www.w3.org/2000/svg"
   xmlns="http://www.w3.org/2000/svg"
   xmlns:sodipodi="http://sodipodi.sourceforge.net/DTD/sodipodi-0.dtd"
   xmlns:inkscape="http://www.inkscape.org/namespaces/inkscape"
   width="22"
   height="22"
   viewBox="0 0 22 22"
   id="svg4239"
   version="1.1"
   inkscape:version="0.91 r13725"
   sodipodi:docname="latexila.svg">
  <defs
     id="defs4241" />
  <sodipodi:namedview
     id="base"
     pagecolor="#ffffff"
     bordercolor="#666666"
     borderopacity="1.0"
     inkscape:pageopacity="0.0"
     inkscape:pageshadow="2"
     inkscape:zoom="1"
     inkscape:cx="14.74829"
     inkscape:cy="12.877653"
     inkscape:document-units="px"
     inkscape:current-layer="layer1"
     showgrid="false"
     units="px"
     showguides="false"
     inkscape:window-width="1535"
     inkscape:window-height="876"
     inkscape:window-x="65"
     inkscape:window-y="24"
     inkscape:window-maximized="1" />
  <metadata
     id="metadata4244">
    <rdf:RDF>
      <cc:Work
         rdf:about="">
        <dc:format>image/svg+xml</dc:format>
        <dc:type
           rdf:resource="http://purl.org/dc/dcmitype/StillImage" />
        <dc:title></dc:title>
      </cc:Work>
    </rdf:RDF>
  </metadata>
  <g
     inkscape:label="Layer 1"
     inkscape:groupmode="layer"
     id="layer1"
     transform="translate(0,-1030.3622)">
    <g
       id="g5184"
       transform="translate(-1,1.0000087)">
      <circle
         r="10"
         cy="1040.3622"
         cx="12"
         id="path4847"
         style="opacity:1;fill:#00b88a;fill-opacity:1;stroke:none;stroke-width:4;stroke-linecap:round;stroke-linejoin:round;stroke-miterlimit:4;stroke-dasharray:none;stroke-opacity:1" />
      <path
         inkscape:connector-curvature="0"
         style="opacity:0.2;fill:#000000;fill-opacity:1;stroke:none;stroke-width:4;stroke-linecap:round;stroke-linejoin:round;stroke-miterlimit:4;stroke-dasharray:none;stroke-opacity:1"
         d="m 12,1032.8622 a 8,8 0 0 0 -8,8 8,8 0 0 0 8,8 8,8 0 0 0 8,-8 8,8 0 0 0 -8,-8 z m -2,2 2,0 2,0 -1,2.5 -1,2.5 -1,-2.5 -1,-2.5 z m -0.828125,0.3438 1.060547,2.4746 1.060547,2.4746 -2.4746096,-1.0606 -2.4746094,-1.0605 1.4140625,-1.4141 1.4140625,-1.414 z m 5.65625,0 1.414063,1.414 1.414062,1.4141 -2.474609,1.0605 -2.47461,1.0606 1.060547,-2.4746 1.060547,-2.4746 z M 6,1038.8622 l 2.5,1 2.5,1 -2.5,1 -2.5,1 0,-2 0,-2 z m 12,0 0,2 0,2 -2.5,-1 -2.5,-1 2.5,-1 2.5,-1 z m -6.707031,2.707 -1.060547,2.4746 -1.060547,2.4747 -1.4140625,-1.4141 -1.4140625,-1.4141 2.4746094,-1.0605 2.4746096,-1.0606 z m 1.414062,0 2.47461,1.0606 2.474609,1.0605 -1.414062,1.4141 -1.414063,1.4141 -1.060547,-2.4747 -1.060547,-2.4746 z M 12,1041.8622 l 1,2.5 1,2.5 -2,0 -2,0 1,-2.5 1,-2.5 z"
         id="path5182" />
      <path
         id="path5146"
         transform="translate(0,1028.3622)"
         d="m 12,4 a 8,8 0 0 0 -8,8 8,8 0 0 0 8,8 8,8 0 0 0 8,-8 8,8 0 0 0 -8,-8 z M 10,6 12,6 14,6 13,8.5 12,11 11,8.5 10,6 Z M 9.171875,6.34375 10.232422,8.8183594 11.292969,11.292969 8.8183594,10.232422 6.34375,9.171875 7.7578125,7.7578125 9.171875,6.34375 Z m 5.65625,0 1.414063,1.4140625 1.414062,1.4140625 -2.474609,1.060547 -2.47461,1.060547 L 13.767578,8.8183594 14.828125,6.34375 Z M 6,10 8.5,11 11,12 8.5,13 6,14 6,12 6,10 Z m 12,0 0,2 0,2 -2.5,-1 -2.5,-1 2.5,-1 2.5,-1 z m -6.707031,2.707031 -1.060547,2.47461 L 9.171875,17.65625 7.7578125,16.242188 6.34375,14.828125 8.8183594,13.767578 11.292969,12.707031 Z m 1.414062,0 2.47461,1.060547 2.474609,1.060547 -1.414062,1.414063 -1.414063,1.414062 -1.060547,-2.474609 -1.060547,-2.47461 z M 12,13 l 1,2.5 1,2.5 -2,0 -2,0 1,-2.5 1,-2.5 z"
         style="opacity:1;fill:#fff763;fill-opacity:1;stroke:none;stroke-width:4;stroke-linecap:round;stroke-linejoin:round;stroke-miterlimit:4;stroke-dasharray:none;stroke-opacity:1"
         inkscape:connector-curvature="0" />
      <path
         id="circle4925"
         d="m 12,1030.3622 a 10,10 0 0 0 -10,10 10,10 0 0 0 0.010742,0.291 10,10 0 0 1 9.989258,-9.791 10,10 0 0 1 9.989258,9.709 10,10 0 0 0 0.01074,-0.209 10,10 0 0 0 -10,-10 z"
         style="opacity:0.2;fill:#ffffff;fill-opacity:1;stroke:none;stroke-width:4;stroke-linecap:round;stroke-linejoin:round;stroke-miterlimit:4;stroke-dasharray:none;stroke-opacity:1"
         inkscape:connector-curvature="0" />
      <path
         id="circle4930"
         d="M 21.989258,1040.0712 A 10,10 0 0 1 12,1049.8622 10,10 0 0 1 2.0107422,1040.1532 10,10 0 0 0 2,1040.3622 a 10,10 0 0 0 10,10 10,10 0 0 0 10,-10 10,10 0 0 0 -0.01074,-0.291 z"
         style="opacity:0.3;fill:#000000;fill-opacity:1;stroke:none;stroke-width:4;stroke-linecap:round;stroke-linejoin:round;stroke-miterlimit:4;stroke-dasharray:none;stroke-opacity:1"
         inkscape:connector-curvature="0" />
    </g>
  </g>
</svg>
